public/cloud-icons/azure/application/application-service-environment.svg

<?xml version="1.0" encoding="UTF-8" standalone="no"?>
<!-- Generated by Microsoft Visio, SVG Export Application Service Environment.svg Page-1 -->

<svg
   xmlns:dc="http://purl.org/dc/elements/1.1/"
   xmlns:cc="http://creativecommons.org/ns#"
   xmlns:rdf="http://www.w3.org/1999/02/22-rdf-syntax-ns#"
   xmlns:svg="http://www.w3.org/2000/svg"
   xmlns="http://www.w3.org/2000/svg"
   xmlns:sodipodi="http://sodipodi.sourceforge.net/DTD/sodipodi-0.dtd"
   xmlns:inkscape="http://www.inkscape.org/namespaces/inkscape"
   width="56.692902"
   height="56.692902"
   viewBox="0 0 56.692901 56.692902"
   xml:space="preserve"
   class="st4"
   version="1.1"
   id="svg35"
   sodipodi:docname="Application Service Environment.svg"
   style="font-size:12px;overflow:visible;color-interpolation-filters:sRGB;fill:none;fill-rule:evenodd;stroke-linecap:square;stroke-miterlimit:3"
   inkscape:version="0.92.5 (2060ec1f9f, 2020-04-08)"><metadata
   id="metadata39"><rdf:RDF><cc:Work
       rdf:about=""><dc:format>image/svg+xml</dc:format><dc:type
         rdf:resource="http://purl.org/dc/dcmitype/StillImage" /></cc:Work></rdf:RDF></metadata><sodipodi:namedview
   pagecolor="#ffffff"
   bordercolor="#666666"
   borderopacity="1"
   objecttolerance="10"
   gridtolerance="10"
   guidetolerance="10"
   inkscape:pageopacity="0"
   inkscape:pageshadow="2"
   inkscape:window-width="640"
   inkscape:window-height="480"
   id="namedview37"
   showgrid="false"
   inkscape:zoom="1.8924055"
   inkscape:cx="28.3465"
   inkscape:cy="28.338403"
   inkscape:window-x="0"
   inkscape:window-y="0"
   inkscape:window-maximized="0"
   inkscape:current-layer="svg35" />
	<style
   type="text/css"
   id="style2">
	<![CDATA[
		.st1 {fill:#949494;stroke:none;stroke-linecap:butt;stroke-width:34}
		.st2 {fill:url(#grad0-8);stroke:none;stroke-linecap:butt;stroke-width:34}
		.st3 {fill:none;stroke:none;stroke-linecap:butt;stroke-width:34}
		.st4 {fill:none;fill-rule:evenodd;font-size:12px;overflow:visible;stroke-linecap:square;stroke-miterlimit:3}
	]]>
	</style>

	<defs
   id="Patterns_And_Gradients">
		<linearGradient
   id="grad0-8"
   x1="0"
   y1="116.55756"
   x2="30.306997"
   y2="116.55756"
   gradientTransform="scale(1.1776158,0.84917336)"
   gradientUnits="userSpaceOnUse">
			<stop
   offset="0.18"
   stop-color="#5ea0ef"
   stop-opacity="1"
   id="stop4" />
			<stop
   offset="1"
   stop-color="#0078d4"
   stop-opacity="1"
   id="stop6" />
		</linearGradient>
	</defs>
	<g
   id="g33"
   transform="translate(-34,-34.000001)">
		<title
   id="title10">Page-1</title>
		<g
   id="group15532-1"
   transform="translate(34,-34.0157)">
			<title
   id="title12">Application Service Environment.15532</title>
			<g
   id="group15533-2">
				<title
   id="title14">Icon-web-47</title>
				<g
   id="shape15534-3"
   transform="translate(3.14961,-2.89764)">
					<title
   id="title16">Sheet.15534</title>
					<path
   d="M 23.84,98.28 H 0 V 77.78 A 3.46457,3.46457 0 0 1 3.43,74.31 H 23.84 Z M 2.96,95.32 H 20.88 V 77.21 H 3.43 a 0.472441,0.472441 -180 0 0 -0.472441,0.472441 z m 47.43,2.96 H 26.55 V 74.31 h 20.41 a 3.46457,3.46457 0 0 1 3.43,3.47 z M 29.51,95.32 H 47.43 V 77.78 A 0.472441,0.472441 -180 0 0 46.957559,77.213071 L 29.51,77.21 Z m -5.67,29.39 H 3.43 A 3.43307,3.43307 0 0 1 0,121.31 V 100.77 H 23.84 Z M 2.96,103.73 v 17.58 a 0.472441,0.472441 -180 0 0 0.472441,0.47244 L 20.88,121.78 v -18.05 z m 44,20.98 H 26.55 v -23.94 h 23.84 v 20.54 a 3.43307,3.43307 0 0 1 -3.43,3.4 z m -17.45,-2.96 h 17.45 a 0.472441,0.472441 -180 0 0 0.472441,-0.47244 L 47.43,103.73 H 29.51 Z"
   class="st1"
   id="path18"
   inkscape:connector-curvature="0"
   style="fill:#949494;stroke:none;stroke-width:34;stroke-linecap:butt" />
				</g>
				<g
   id="shape15535-5"
   transform="translate(10.5197,-15.2126)">
					<title
   id="title21">Sheet.15535</title>
					<path
   d="M 35.69,116.68 A 8.15748,8.15748 -180 0 0 28.72,108.8 10.2047,10.2047 -180 0 0 18.3,98.98 10.4567,10.4567 -180 0 0 8.38,105.81 9.70079,9.70079 -180 0 0 0,115.26 a 9.79528,9.79528 -180 0 0 10.05,9.45 h 17.67 a 8.22047,8.22047 -180 0 0 7.97,-8.03 z"
   class="st2"
   id="path23"
   inkscape:connector-curvature="0"
   style="fill:url(#grad0-8);stroke:none;stroke-width:34;stroke-linecap:butt" />
				</g>
				<g
   id="shape15536-9">
					<title
   id="title26">Sheet.15536</title>
					<rect
   x="0"
   y="68.015701"
   width="56.692902"
   height="56.692902"
   class="st3"
   id="rect28"
   style="fill:none;stroke:none;stroke-width:34;stroke-linecap:butt" />
				</g>
			</g>
		</g>
	</g>
</svg>

<svg xmlns="http://www.w3.org/2000/svg" xml:space="preserve" width="56.693" height="56.693" style="font-size:12px;overflow:visible;color-interpolation-filters:sRGB;fill-rule:evenodd;stroke-linecap:square;stroke-miterlimit:3" viewBox="0 0 56.693 56.693"><defs><linearGradient id="a" x1="0" x2="30.307" y1="116.558" y2="116.558" gradientTransform="scale(1.17762 .84917)" gradientUnits="userSpaceOnUse"><stop offset=".18" stop-color="#5ea0ef"/><stop offset="1" stop-color="#0078d4"/></linearGradient></defs><g transform="translate(-34 -34)"><title>Page-1</title><g transform="translate(34 -34.016)"><title>Application Service Environment.15532</title><title>Icon-web-47</title><g transform="translate(3.15 -2.898)"><title>Sheet.15534</title><path d="M23.84 98.28H0v-20.5a3.465 3.465 0 0 1 3.43-3.47h20.41ZM2.96 95.32h17.92V77.21H3.43a.47.47-180 0 0-.472.472zm47.43 2.96H26.55V74.31h20.41a3.465 3.465 0 0 1 3.43 3.47zm-20.88-2.96h17.92V77.78a.472.472-180 0 0-.472-.567L29.51 77.21Zm-5.67 29.39H3.43a3.433 3.433 0 0 1-3.43-3.4v-20.54h23.84ZM2.96 103.73v17.58a.47.47-180 0 0 .472.472l17.448-.002v-18.05zm44 20.98H26.55v-23.94h23.84v20.54a3.433 3.433 0 0 1-3.43 3.4m-17.45-2.96h17.45a.47.47-180 0 0 .472-.472l-.002-17.548H29.51Z" style="fill:#949494;stroke:none;stroke-width:34;stroke-linecap:butt"/></g><g transform="translate(10.52 -15.213)"><title>Sheet.15535</title><path d="M35.69 116.68a8.16 8.16-180 0 0-6.97-7.88 10.205 10.205-180 0 0-10.42-9.82 10.46 10.46-180 0 0-9.92 6.83A9.7 9.7-180 0 0 0 115.26a9.795 9.795-180 0 0 10.05 9.45h17.67a8.22 8.22-180 0 0 7.97-8.03" style="fill:url(#a);stroke:none;stroke-width:34;stroke-linecap:butt"/></g><title>Sheet.15536</title><path d="M0 68.016h56.693v56.693H0z" style="fill:none;stroke:none;stroke-width:34;stroke-linecap:butt"/></g></g></svg>
